app/dist/common/images/international-graphite-ltd.svg

<svg height="18" viewBox="0 0 18 18" width="18" xmlns="http://www.w3.org/2000/svg"><path d="m0 0h18v18h-18z" fill="#f0f3fa"/><path d="m15 10h-1.78l-.9 1.46h-2.63l.9 1.54h2.64z" fill="#046937"/><path d="m10.57 13-2.21-4 1.32-2.39-1.74-.07-1.37 2.46 2.22 4z" fill="#079247"/><path d="m7 13-2.22-4-.89 1.6 1.32 2.4z" fill="#818181"/><path d="m4.78 9 .29.52-1.18 1.09.9-1.6z" fill="#676767"/><path d="m11.13 6.54.86-1.54h-3.2l-.85 1.54zm3.15 1.84h-4.3l.72 1.62h4.3z" fill="#3db54a"/><path d="m3 9 2.21-4h1.8l-3.12 5.6z" fill="#989898"/></svg>

<!-- by TradingView --><svg width="18" height="18" viewBox="0 0 18 18" xmlns="http://www.w3.org/2000/svg"><path fill="#F0F3FA" d="M0 0h18v18H0z"/><path d="M15 10h-1.78l-.9 1.46H9.69l.9 1.54h2.64L15 10Z" fill="#046937"/><path d="M10.57 13 8.36 9l1.32-2.39-1.74-.07L6.57 9l2.22 4h1.78Z" fill="#079247"/><path d="M7 13 4.78 9l-.89 1.6L5.21 13H7Z" fill="#818181"/><path d="m4.78 9 .29.52-1.18 1.09.9-1.6Z" fill="#676767"/><path d="M11.13 6.54 11.99 5h-3.2l-.85 1.54h3.19ZM14.28 8.38h-4.3L10.7 10H15l-.72-1.62Z" fill="#3DB54A"/><path d="m3 9 2.21-4h1.8l-3.12 5.6L3 9Z" fill="#989898"/></svg>
